packages/foundations/assets/icons/functional/images/arrows/arrow_down_20.svg

<svg width="20" height="20" viewBox="0 0 20 20" fill="none" xmlns="http://www.w3.org/2000/svg">
<g clip-path="url(#clip0_183_3765)">
<path fill-rule="evenodd" clip-rule="evenodd" d="M10.688 16.687C10.6035 16.7867 10.498 16.8664 10.379 16.9205C10.2601 16.9746 10.1307 17.0018 9.99999 17C9.74999 17 9.49999 16.906 9.28099 16.687L4.28099 11.719C4.0989 11.524 3.99835 11.2667 3.99999 11C3.99999 10.437 4.43799 9.99998 4.99999 9.99998C5.24999 9.99998 5.49999 10.094 5.68799 10.281L8.99999 13.594V3.99998C8.99999 3.43698 9.43799 2.99998 9.99999 2.99998C10.531 2.99998 11 3.43798 11 3.99998V13.594L14.281 10.281C14.5 10.094 14.75 9.99998 15 9.99998C15.531 9.99998 16 10.438 16 11C16.0021 11.2311 15.922 11.4554 15.774 11.633L10.688 16.687Z" fill="#1A1C1F"/>
</g>
<defs>
<clipPath id="clip0_183_3765">
<rect width="20" height="20" fill="white"/>
</clipPath>
</defs>
</svg>

<svg xmlns="http://www.w3.org/2000/svg" width="20" height="20" fill="none"><g clip-path="url(#a)"><path fill="#1A1C1F" fill-rule="evenodd" d="M10.688 16.687A.89.89 0 0 1 10 17c-.25 0-.5-.094-.719-.313l-5-4.968A1.04 1.04 0 0 1 4 11c0-.563.438-1 1-1 .25 0 .5.094.688.281L9 13.594V4c0-.563.438-1 1-1 .531 0 1 .438 1 1v9.594l3.281-3.313C14.5 10.094 14.75 10 15 10c.531 0 1 .438 1 1a.98.98 0 0 1-.226.633z" clip-rule="evenodd"/></g><defs><clipPath id="a"><path fill="#fff" d="M0 0h20v20H0z"/></clipPath></defs></svg>
